X: 11053
M: 3/4
L: 1/8
K: D
|:\
a2bagf | Te2(dc)d2 |\
EgFaGb | Te2dcBA |\
a2bagf | Te2(dc)d2 |
EgFa Ac | d2D2z2 ::\
(fga)fed | (cea)edc |\
(dBb)dcB | Tc2(Bc)A2 |
(ec)(BA)eA | fA^gAaA |\
[d'2d2]Tb4 | a4z2 |\
a2bagf | Te2(dc)d2 |\
EgFaGb | Te2dcBA |\
a(g/a/) bagf | Te2(dc)d2 |\
E(e/f/) F(g/a/) A[c'c] | [d'2d2] [d4D4] :|


